X:1
T:Jenny Pluck Pears
C:John Playford, The English Dancing Master, 1651
N:arr. Dave Lankford. Matches Pile 2018
P:AAB x 6
M:6/8
L:1/8
K:A minor
P:A
"Am"A2A "G"B3/c/d | "Am"c3/B/A "Em"G2E | "Am"A2A "G"B3/c/d | "Am"c3/B/A "Em"G2E | "G"e2e "Am"d2B | "Em"c3/B/A "D"G2E | "Em"^F3/G/A "Am"G3/F/G |  [1 A3 "Am"A2E :|]
 [2 A3 "Am"A3 :|\
M:3/4
P:B
A2e2d2 | c4B2 | A2e2d2 | c4B2 | "^Intro"A2e2d2 | c3"Em"BA2 | G3"Am"^FG2 | A6 |]

